src/icons/svg/rocket.svg

<?xml version="1.0" encoding="UTF-8"?>
<svg width="40px" height="40px" viewBox="0 0 40 40" version="1.1" xmlns="http://www.w3.org/2000/svg"
>
    <path d="M34.5096487,7.83887952 C34.5096487,7.18668475 34.2807534,6.63169207 33.8229628,6.1739015 C33.3651722,5.71611092 32.8101796,5.48721563 32.1579848,5.48721563 C31.50579,5.48721563 30.9507974,5.71611092 30.4930068,6.1739015 C30.0352162,6.63169207 29.8063209,7.18668475 29.8063209,7.83887952 C29.8063209,8.49107429 30.0352162,9.04606696 30.4930068,9.50385754 C30.9507974,9.96164812 31.50579,10.1905434 32.1579848,10.1905434 C32.8101796,10.1905434 33.3651722,9.96164812 33.8229628,9.50385754 C34.2807534,9.04606696 34.5096487,8.49107429 34.5096487,7.83887952 Z M39.9968644,0.783887862 C39.9968644,4.84965341 39.3802059,8.36460703 38.1468888,11.3287487 C36.9135717,14.2928904 34.8441075,17.2361284 31.9384962,20.1584627 C30.6152933,21.4649426 29.0234781,22.9020706 27.1630507,24.4698465 L26.6739046,33.7542155 C26.6404587,34.0155115 26.5098107,34.2276838 26.2819607,34.3907325 L16.8753052,39.8779482 C16.7603349,39.9427497 16.6296869,39.9751504 16.4833612,39.9751504 C16.2868666,39.9751504 16.0987335,39.9019875 15.9189619,39.7556617 L14.3511859,38.1878858 C14.1379684,37.9600357 14.073167,37.6987397 14.1567817,37.4039979 L16.2387881,30.6437481 L9.35625187,23.7612118 L2.5960021,25.8432182 C2.54792363,25.8599412 2.47476076,25.8683027 2.37651347,25.8683027 C2.14866338,25.8683027 1.96053028,25.7951398 1.81211415,25.648814 L0.244338216,24.0810381 C-0.0336807137,23.7716636 -0.0744428814,23.4528825 0.122051713,23.1246948 L5.60926743,13.7180393 C5.77231613,13.4901892 5.98448847,13.3595412 6.24578446,13.3260953 L15.5301535,12.8369492 C17.0979294,10.9744314 18.5350573,9.38261628 19.8415372,8.06150379 C22.9122877,5.00747631 25.8356672,2.90038547 28.6116757,1.74023128 C31.3876843,0.580077094 34.9068186,0 39.1690788,0 C39.3969289,0 39.5923783,0.0773436059 39.755427,0.232030818 C39.9184757,0.38671803 40,0.570670406 40,0.783887948 L39.9968644,0.783887862 Z"
          id="形状"></path>
</svg>

<svg width="40" height="40" xmlns="http://www.w3.org/2000/svg"><path d="M34.51 7.839c0-.652-.23-1.207-.687-1.665a2.267 2.267 0 0 0-1.665-.687c-.652 0-1.207.23-1.665.687a2.267 2.267 0 0 0-.687 1.665c0 .652.23 1.207.687 1.665a2.267 2.267 0 0 0 1.665.687c.652 0 1.207-.23 1.665-.687a2.267 2.267 0 0 0 .687-1.665zM39.997.784c0 4.066-.617 7.58-1.85 10.545-1.233 2.964-3.303 5.907-6.209 8.83-1.323 1.306-2.915 2.743-4.775 4.31l-.49 9.285a.899.899 0 0 1-.391.637l-9.407 5.487a.784.784 0 0 1-.392.097.883.883 0 0 1-.564-.22l-1.568-1.567a.772.772 0 0 1-.194-.784l2.082-6.76-6.883-6.883-6.76 2.082a.714.714 0 0 1-.22.025.77.77 0 0 1-.564-.22L.244 24.082c-.278-.31-.318-.628-.122-.956l5.487-9.407a.899.899 0 0 1 .637-.392l9.284-.49c1.568-1.862 3.005-3.453 4.312-4.774 3.07-3.055 5.994-5.162 8.77-6.322C31.388.58 34.907 0 39.169 0c.228 0 .423.077.586.232A.735.735 0 0 1 40 .784h-.003z"/></svg>
